X:1
T:Carols of the Bells
T:(Ukranian Christmas Carol)
T:Arr. Kyra Ammon
%%score 1 2 3 4
L:1/8
M:3/4
K:Eb
V:1 treble+8 nm="Piccolo" snm="Picc."
V:2 treble nm="Flute" snm="Fl."
V:3 treble nm="Flute" snm="Fl."
V:4 treble nm="Flute" snm="Fl."
V:1
 e2 de c2 | e2 de c2 | e2 de c2 | e2 de c2 | e2 de c2 | e2 de c2 | e2 de c2 | e2 de c2 | e2 de c2 | %9
 e2 de c2 | e2 de c2 | e2 de c2 | g2 fg e2 | g2 fg e2 | g2 fg e2 | g2 fg e2 | g4 g2 | e4 e2 | %18
 c4 c2 | c6 |!mp! g6 | A2 B2 c2 | g6 | A2 B2 c2 | B6 | A6 | d6 | c6 | (g6 | (g6) | (g6) | (g6) | %32
 g6) |] %33
V:2
 c6 | B6 | A6 | G6 | A6 | G6 | F6 | E6 | e2 de c2 | e2 de c2 | e2 de c2 | e2 de c2 | g2 fg e2 | %13
 g2 fg e2 | g2 fg e2 | g2 fg e2 | c'2 c'c' ba | g2 gg fe | f2 ff gf | e2 de c2 |!f! G=A =Bc de | %21
 fg f2 e2 | G=A =Bc de | fg f2 e2 | e2 de c2 | e2 de c2 | e2 de c2 | e2 de c2 | e2 de c2 | %29
 e2 de c2 | e2 de c2 | e2 de (c2 | c6) |] %33
V:3
 z6 | z6 | z6 | z6 | c6 | B6 | A6 | G6 | f6 | g6 | f6 | g6 | g6 | a6 | b6 | =a2 _a2 g2 | e4 e2 | %17
 c4 c2 | A4 A2 | G6 |!mp! e6 | a4 g2 | e6 | a4 g2 | e6 | e6 | e6 | e6 | (e6 | (e6) | (e6) | (e6) | %32
 a6) |] %33
V:4
 z6 | z6 | z6 | z6 | z6 | z6 | z6 | z6 | A6 | c6 | A6 | c6 | c6 | c6 | c6 | c2 c2 c2 | c4 c2 | %17
 A4 A2 | e4 e2 | e4 e2 |!mp! d6 | d4 c2 | d6 | d4 c2 | d6 | c6 | B6 | A6 | (d6 | (d6) | (d6) | %31
 (d6) | e6) |] %33

